X: 1
T: FASTEN THE WIG ON HER -- JIG
B: Ryan's Mammoth Collection of Fiddle Tunes
R: jig
M: 6/8
L: 1/8
N: The g in bar 9 is probably a typo.
Z: Contributed 20001106221011 by John Chambers John.Chambers:weema.com
K: Dmix
 vB2B (BA).B | def gdB | A2A (AG).A | Bd"4"e dBA \
| B2B (BA).B | def gfg | (ea).a a2g |1 fdd d2c :|2 gdd def |]
|: vgag gfe | d2d (dc).B | A2A (AG)A | Bdd def \
| g2g (gf).e | d2d d^cd | (ea).a a2g | |1 fdd d2c :|2 fdd d2c |]
